X:1
T:Jászkunsági gyerek vagyok
T: 
C:Hungarian folk song
Z:Public Domain
L:1/8
Q:1/4=120
M:4/4
K:Cmin
V:1 treble nm="MusicXML Part"
%%MIDI program 0
V:1
"Cm" G2 G2 A2 G2 |"G" F E3 D C3 |"Cm" c2 c2 d2 B2 |"G" d c3 G2 z2 |"Cm" G3 e d2 c2 | %5
w: Jász- kun- sá- gi|gye- rek va- gyok,|Jász- kun- ság- ban|szü- let- tem,|Kis- ko- rom- tól|
"G" G3 F G =A3 | B2 c2 G3 E | G F3"Cm" C2 z2 |] %8
w: nagy- ko- rom- ig|ben- ne fel- ne-|ve- lõd- tem.|

